svg/Pictogram/pictograms-aem-0047-read_operators_manual.svg

<?xml version="1.0" encoding="ISO-8859-1" standalone="yes"?>
<svg height="304.014" width="304.015">
  <metadata>
    <rdf:RDF xmlns:cc="http://web.resource.org/cc/" xmlns:dc="http://purl.org/dc/elements/1.1/" xmlns:rdf="http://www.w3.org/1999/02/22-rdf-syntax-ns#">
      <cc:Work rdf:about="">
        <dc:title></dc:title>
        <dc:description></dc:description>
        <dc:subject>
          <rdf:Bag>
            <rdf:li></rdf:li>
          </rdf:Bag>
        </dc:subject>
        <dc:publisher>
          <cc:Agent rdf:about="http://www.unece.org/trans/danger/publi/ghs/pictograms.html">
            <dc:title>Source: UNECE GHS of Classification and Labeling of Chemicals, Source: AEM Pictorial Database, Source: AEM Pictorial Database, Source: AEM Pictorial Database, Source: AEM Pictorial Database</dc:title>
          </cc:Agent>
        </dc:publisher>
        <dc:creator>
          <cc:Agent>
            <dc:title></dc:title>
          </cc:Agent>
        </dc:creator>
        <dc:rights>
          <cc:Agent>
            <dc:title></dc:title>
          </cc:Agent>
        </dc:rights>
        <dc:date></dc:date>
        <dc:format>image/svg+xml</dc:format>
        <dc:type rdf:resource="http://purl.org/dc/dcmitype/StillImage"/>
        <cc:license rdf:resource="http://en.wikipedia.org/wiki/Public_domain"/>
        <dc:language>en</dc:language>
      </cc:Work>
    </rdf:RDF>
  </metadata>
  <defs><marker id="ArrowEnd" markerHeight="3" markerUnits="strokeWidth" markerWidth="4" orient="auto" refX="0" refY="5" viewBox="0 0 10 10"><path d="M 0 0 L 10 5 L 0 10 z"/></marker><marker id="ArrowStart" markerHeight="3" markerUnits="strokeWidth" markerWidth="4" orient="auto" refX="10" refY="5" viewBox="0 0 10 10"><path d="M 10 0 L 0 5 L 10 10 z"/></marker> </defs>
  <g id="g2958" transform="matrix(1.3532768,0,0,1.3532781,-53.207834,-52.192858)">
    <path d="M 56.3084 219.034L 56.3084 114.381L 70.4174 114.467L 70.3904 108.307C 74.5384 106.198 79.3474 104.397 84.5344 102.948L 84.5194 88.6634C 92.7534 86.2884 103.171 84.8544 114.511 84.8544C 129.671 84.8544 143.3 87.5734 152.132 91.5304C 160.964 87.5734 174.347 84.9794 189.503 84.9794C 200.847 84.9794 211.261 86.4134 219.491 88.7884L 219.48 103.073C 224.667 104.522 229.476 106.323 233.624 108.432L 233.597 114.592L 247.706 114.506L 247.706 219.159L 56.3084 219.034zM 213.815 93.1554C 207.104 91.8624 198.804 90.7724 189.628 90.7724C 175.351 90.7724 162.831 93.4564 154.866 96.4404L 154.78 189.596C 163.538 186.19 175.897 183.975 189.499 183.975C 198.366 183.975 206.675 184.846 213.812 186.354L 213.815 93.1554zM 114.573 203.682C 96.6984 203.682 80.7654 207.491 70.3744 213.405L 70.4174 120.26L 61.9564 120.346L 61.9564 213.413L 242.058 213.538L 242.058 120.221L 233.597 120.135L 233.64 213.53C 223.249 207.616 207.315 203.807 189.437 203.807C 175.081 203.807 161.991 206.057 152.007 210.081C 142.019 206.057 128.929 203.682 114.573 203.682zM 90.1984 186.233C 97.3394 184.721 105.644 183.85 114.511 183.85C 128.116 183.85 140.472 186.069 149.233 189.471L 149.144 96.0654C 141.433 92.9564 128.784 90.5224 114.511 90.5224C 105.468 90.5224 97.0934 91.7024 90.1984 93.0304L 90.1984 186.233zM 151.944 195.784C 144.745 192.116 130.659 189.518 114.511 189.518C 102.772 189.518 92.1874 190.846 84.4914 192.975L 84.5624 108.686C 81.3864 109.581 78.5774 110.698 75.8544 111.85L 76.0584 204.78C 86.6594 200.553 100.038 198.01 114.577 198.01C 128.628 198.01 141.577 200.241 152.007 204.217C 162.437 200.241 175.386 198.135 189.437 198.135C 203.976 198.135 217.354 200.553 227.956 204.78L 228.155 111.975C 225.437 110.819 222.628 109.706 219.452 108.811L 219.397 193.725C 211.702 191.596 201.241 189.643 189.503 189.643C 173.354 189.643 159.144 192.241 151.944 195.909" style="stroke:none; fill-rule:evenodd; fill:#000000"/>
    <path d="M 29.6204 265.393L 2.62042 265.393" style="stroke:#000000; stroke-width:0.5; fill:none"/>
    <path d="M 38.6204 274.393L 38.6204 301.393" style="stroke:#000000; stroke-width:0.5; fill:none"/>
    <path d="M 29.6204 38.6204L 2.62042 38.6204" style="stroke:#000000; stroke-width:0.5; fill:none"/>
    <path d="M 38.6204 29.6204L 38.6204 2.62042" style="stroke:#000000; stroke-width:0.5; fill:none"/>
    <path d="M 274.394 38.6204L 301.394 38.6204" style="stroke:#000000; stroke-width:0.5; fill:none"/>
    <path d="M 265.394 29.6204L 265.394 2.62042" style="stroke:#000000; stroke-width:0.5; fill:none"/>
    <path d="M 274.394 265.393L 301.394 265.393" style="stroke:#000000; stroke-width:0.5; fill:none"/>
    <path d="M 265.394 274.393L 265.394 301.393" style="stroke:#000000; stroke-width:0.5; fill:none"/>
  </g>
</svg>

<svg viewBox="0 0 304.01 304.01"><g transform="matrix(1.35328 0 0 1.35328-53.21-52.19)"><path d="m56.31 219.03v-104.65l14.11.086-.027-6.16c4.148-2.109 8.957-3.91 14.14-5.359l-.015-14.285c8.234-2.375 18.652-3.809 29.992-3.809 15.16 0 28.789 2.719 37.621 6.676 8.832-3.957 22.22-6.551 37.37-6.551 11.344 0 21.758 1.434 29.988 3.809l-.011 14.285c5.187 1.449 9.996 3.25 14.14 5.359l-.027 6.16 14.11-.086v104.65l-191.4-.125m157.51-125.88c-6.711-1.293-15.01-2.383-24.19-2.383-14.277 0-26.797 2.684-34.762 5.668l-.086 93.16c8.758-3.406 21.12-5.621 34.719-5.621 8.867 0 17.18.871 24.313 2.379l.003-93.2m-99.24 110.53c-17.875 0-33.808 3.809-44.2 9.723l.043-93.14-8.461.086v93.07l180.1.125v-93.32l-8.461-.086.043 93.39c-10.391-5.914-26.325-9.723-44.2-9.723-14.356 0-27.446 2.25-37.43 6.274-9.988-4.02-23.08-6.399-37.434-6.399m-24.375-17.449c7.141-1.512 15.446-2.383 24.313-2.383 13.605 0 25.961 2.219 34.722 5.621l-.089-93.41c-7.711-3.109-20.36-5.543-34.633-5.543-9.04 0-17.418 1.18-24.313 2.508v93.2m61.746 9.551c-7.199-3.668-21.285-6.266-37.433-6.266-11.739 0-22.324 1.328-30.02 3.457l.071-84.29c-3.176.895-5.985 2.01-8.708 3.164l.204 92.93c10.601-4.227 23.98-6.77 38.519-6.77 14.05 0 27 2.231 37.43 6.207 10.43-3.976 23.379-6.082 37.43-6.082 14.539 0 27.917 2.418 38.519 6.645l.199-92.81c-2.718-1.156-5.527-2.269-8.703-3.164l-.055 84.91c-7.695-2.129-18.16-4.082-29.894-4.082-16.15 0-30.359 2.598-37.559 6.266" fill-rule="evenodd"/></g></svg>
